X:30
T:Dunmaglass
T:Miller Lads
T:Gillean ban a' mhuilleir
R:Strathspey
S:Simon Fraser Collection
N:No.80
N:transposed from F
O:Scottish
M:C
L:1/8
K:G
B|G<G B2 G<GB<d|A>AB>d e2 e<g|1 G<G B2 G<G Bd|
A<A B>G E2E:|2 g>ab>d B>A GG E2E||
|:f|g>d e/d/c/B/ gddb|g<d d>B e2 ef|1 g>ab>d B>A G<B|
A>AB>G E2E:|2 gA GG E2E||
